X:1
T:The Duel Strathspey
T:The Duel Strathspey
T:James Porteous
C:James Porteous
L:1/8
Q:1/4=112
M:4/4
K:D
V:1 treble 
V:1
 B/c/ | d>AF<D F<A d2 | (c>e)B>e c>eA>e | d>AF<D F<A d2 | c<eA>c d(D D) B/c/ | d>AF<D F<A d2 | %6
 c>eB>e c>eA>e | d>AF<D F<A d2 | c<eA>c d(DD) || f/g/ | a>fd>f A>fd>f | g>ec>e A>ec>e | %12
 a>fd>f A>fd>f | g>ec>e d(D D) f/g/ | a>fd>f A>fd>f | g>ec>e A>ec>e | afdA gecA | B>ec>e d(DD) |] %18

